icons/svg/functional-icons/subway_station_small_yellow.svg

<?xml version="1.0" encoding="UTF-8" standalone="no"?>
<!-- Generator: Adobe Illustrator 16.0.4, SVG Export Plug-In . SVG Version: 6.00 Build 0)  -->

<svg
   xmlns:dc="http://purl.org/dc/elements/1.1/"
   xmlns:cc="http://creativecommons.org/ns#"
   xmlns:rdf="http://www.w3.org/1999/02/22-rdf-syntax-ns#"
   xmlns:svg="http://www.w3.org/2000/svg"
   xmlns="http://www.w3.org/2000/svg"
   xmlns:sodipodi="http://sodipodi.sourceforge.net/DTD/sodipodi-0.dtd"
   xmlns:inkscape="http://www.inkscape.org/namespaces/inkscape"
   version="1.1"
   id="Слой_1"
   x="0px"
   y="0px"
   width="20"
   height="20"
   viewBox="0 0 19.999999 20"
   enable-background="new 0 0 17.113 17.143"
   xml:space="preserve"
   inkscape:version="0.91 r13725"
   sodipodi:docname="subway_station_small_yellow.svg"><metadata
     id="metadata13"><rdf:RDF><cc:Work
         rdf:about=""><dc:format>image/svg+xml</dc:format><dc:type
           rdf:resource="http://purl.org/dc/dcmitype/StillImage" /><dc:title /></cc:Work></rdf:RDF></metadata><defs
     id="defs11" /><sodipodi:namedview
     pagecolor="#ffffff"
     bordercolor="#666666"
     borderopacity="1"
     objecttolerance="10"
     gridtolerance="10"
     guidetolerance="10"
     inkscape:pageopacity="0"
     inkscape:pageshadow="2"
     inkscape:window-width="1920"
     inkscape:window-height="1006"
     id="namedview9"
     showgrid="false"
     inkscape:zoom="19.468845"
     inkscape:cx="-10.878396"
     inkscape:cy="10.79989"
     inkscape:window-x="1920"
     inkscape:window-y="0"
     inkscape:window-maximized="1"
     inkscape:current-layer="Слой_1" /><path
     style="fill:#c1ac00;fill-opacity:1;stroke:none"
     d="M 10,0.79319905 C 4.9232757,0.79319905 0.79319905,4.9232757 0.79319905,10 c 0,5.076724 4.13007665,9.206801 9.20680095,9.206801 5.076724,0 9.206801,-4.130077 9.206801,-9.206801 0,-5.0767243 -4.130077,-9.20680095 -9.206801,-9.20680095 z m 0,3.30988305 c 3.24634,0 5.896918,2.6505772 5.896918,5.8969179 0,3.24634 -2.650578,5.896918 -5.896918,5.896918 C 6.7536593,15.896918 4.1030821,13.24634 4.1030821,10 4.1030821,6.7536593 6.7536593,4.1030821 10,4.1030821 Z"
     id="path3750"
     inkscape:connector-curvature="0" /><path
     style="fill:#ffff00;fill-opacity:1;fill-rule:evenodd;stroke:none;stroke-opacity:1"
     d="m 9.9999994,2.02 c -4.4232677,0 -7.98,3.5553064 -7.98,7.98 0,4.397686 3.5567323,7.98 7.98,7.98 C 14.424202,17.98 17.98,14.397686 17.98,10 17.98,5.5753064 14.424202,2.02 9.9999994,2.02 Z m 0,4.5542424 c 1.8951526,0 3.4257586,1.5180629 3.4257586,3.4257576 0,1.893995 -1.530606,3.425758 -3.4257586,3.425758 -1.8946917,0 -3.4257575,-1.531763 -3.4257575,-3.425758 0,-1.9076947 1.5310658,-3.4257576 3.4257575,-3.4257576 z"
     id="path3"
     inkscape:connector-curvature="0" /><path
     style="fill:#c1ac00;fill-opacity:1;stroke:none"
     d="M 9.9999997,6.5315986 C 8.0874874,6.5315986 6.531598,8.087488 6.531598,10 c 0,1.912512 1.5558894,3.468402 3.4684017,3.468402 1.9125123,0 3.4684013,-1.55589 3.4684013,-3.468402 0,-1.912512 -1.555889,-3.4684014 -3.4684013,-3.4684014 z m 0,1.2469047 c 1.2229673,0 2.2214963,0.9985299 2.2214963,2.2214967 0,1.222967 -0.99853,2.221496 -2.2214963,2.221496 -1.2229671,0 -2.2214969,-0.998529 -2.2214969,-2.221496 0,-1.2229668 0.9985298,-2.2214967 2.2214969,-2.2214967 z"
     id="path3750-2"
     inkscape:connector-curvature="0" /></svg>

<svg width="20" height="20" viewBox="0 0 20 20" fill="none" xmlns="http://www.w3.org/2000/svg">
<path d="M9.99977 0.792969C4.92304 0.792969 0.792969 4.92304 0.792969 9.99977C0.792969 15.0765 4.92304 19.2066 9.99977 19.2066C15.0765 19.2066 19.2066 15.0765 19.2066 9.99977C19.2066 4.92304 15.0765 0.792969 9.99977 0.792969V0.792969ZM9.99977 4.10285C13.2461 4.10285 15.8967 6.75343 15.8967 9.99977C15.8967 13.2461 13.2461 15.8967 9.99977 15.8967C6.75343 15.8967 4.10285 13.2461 4.10285 9.99977C4.10285 6.75343 6.75343 4.10285 9.99977 4.10285Z" fill="#C1AC00"/>
<path fill-rule="evenodd" clip-rule="evenodd" d="M10 2.01953C5.57675 2.01953 2.02002 5.57484 2.02002 9.99953C2.02002 14.3972 5.57675 17.9795 10 17.9795C14.4242 17.9795 17.98 14.3972 17.98 9.99953C17.98 5.57484 14.4242 2.01953 10 2.01953ZM10 6.57377C11.8952 6.57377 13.4258 8.09184 13.4258 9.99953C13.4258 11.8935 11.8952 13.4253 10 13.4253C8.10533 13.4253 6.57426 11.8935 6.57426 9.99953C6.57426 8.09184 8.10533 6.57377 10 6.57377V6.57377Z" fill="#FFFF00"/>
<path d="M10.0001 6.53125C8.08763 6.53125 6.53174 8.08714 6.53174 9.99965C6.53174 11.9122 8.08763 13.4681 10.0001 13.4681C11.9127 13.4681 13.4685 11.9122 13.4685 9.99965C13.4685 8.08714 11.9127 6.53125 10.0001 6.53125V6.53125ZM10.0001 7.77815C11.2231 7.77815 12.2216 8.77668 12.2216 9.99965C12.2216 11.2226 11.2231 12.2211 10.0001 12.2211C8.77717 12.2211 7.77864 11.2226 7.77864 9.99965C7.77864 8.77668 8.77717 7.77815 10.0001 7.77815V7.77815Z" fill="#C1AC00"/>
</svg>
